symbols/web/dynamic_feed/materialsymbolsrounded/dynamic_feed_wght100gradN25_40px.svg

<svg xmlns="http://www.w3.org/2000/svg" height="40" width="40"><path d="M14.125 26.5q-.958 0-1.625-.667-.667-.666-.667-1.666v-8.959q0-.208.146-.354t.354-.146q.209 0 .334.146.125.146.125.354v8.959q0 .541.416.937.417.396.917.396h12.333q.209 0 .354.146.146.146.146.354 0 .25-.146.375-.145.125-.354.125Zm5.792-5.792q-.959 0-1.646-.666-.688-.667-.688-1.625v-8.375q0-.959.688-1.625.687-.667 1.646-.667h11.75q.916 0 1.604.667.687.666.687 1.625v8.375q0 .958-.687 1.625-.688.666-1.604.666Zm0-.958h11.75q.5 0 .916-.396.417-.396.417-.937v-6.542H18.583v6.542q0 .541.417.937t.917.396ZM8.375 32.25q-.958 0-1.625-.667-.667-.666-.667-1.625v-9q0-.166.146-.312t.354-.146q.167 0 .313.146t.146.312v9q0 .5.416.917.417.417.917.417h12.333q.209 0 .354.125.146.125.146.375 0 .208-.146.333-.145.125-.354.125Z"/></svg>

<svg xmlns="http://www.w3.org/2000/svg" height="40" width="40"><path d="M14.125 26.5Q13.167 26.5 12.5 25.833Q11.833 25.167 11.833 24.167V15.208Q11.833 15 11.979 14.854Q12.125 14.708 12.333 14.708Q12.542 14.708 12.667 14.854Q12.792 15 12.792 15.208V24.167Q12.792 24.708 13.208 25.104Q13.625 25.5 14.125 25.5H26.458Q26.667 25.5 26.812 25.646Q26.958 25.792 26.958 26Q26.958 26.25 26.812 26.375Q26.667 26.5 26.458 26.5ZM19.917 20.708Q18.958 20.708 18.271 20.042Q17.583 19.375 17.583 18.417V10.042Q17.583 9.083 18.271 8.417Q18.958 7.75 19.917 7.75H31.667Q32.583 7.75 33.271 8.417Q33.958 9.083 33.958 10.042V18.417Q33.958 19.375 33.271 20.042Q32.583 20.708 31.667 20.708ZM19.917 19.75H31.667Q32.167 19.75 32.583 19.354Q33 18.958 33 18.417V11.875H18.583V18.417Q18.583 18.958 19 19.354Q19.417 19.75 19.917 19.75ZM8.375 32.25Q7.417 32.25 6.75 31.583Q6.083 30.917 6.083 29.958V20.958Q6.083 20.792 6.229 20.646Q6.375 20.5 6.583 20.5Q6.75 20.5 6.896 20.646Q7.042 20.792 7.042 20.958V29.958Q7.042 30.458 7.458 30.875Q7.875 31.292 8.375 31.292H20.708Q20.917 31.292 21.062 31.417Q21.208 31.542 21.208 31.792Q21.208 32 21.062 32.125Q20.917 32.25 20.708 32.25Z"/></svg>
